static/logos/thepentool-glyph-color.svg

<svg width="50" height="50" viewBox="0 0 50 50" fill="none" xmlns="http://www.w3.org/2000/svg">
<g clip-path="url(#clip0_1_713)">
<path d="M50 25C50 11.1929 38.8071 0 25 0C11.1929 0 0 11.1929 0 25C0 38.8071 11.1929 50 25 50C38.8071 50 50 38.8071 50 25Z" fill="#FFDB59"/>
<path d="M16.8061 13.926C15.1378 12.9186 13.8964 11.894 13.0467 11.0875L18.8369 17.437L24.9629 24.232C25.4605 23.9955 26.0172 23.8632 26.6047 23.8632C28.7205 23.8632 30.4358 25.5791 30.4358 27.6957C30.4358 29.8124 28.7205 31.5285 26.6047 31.5285C24.4889 31.5285 22.7737 29.8124 22.7737 27.6957C22.7737 26.8817 23.0274 26.1268 23.4601 25.5061L15.7681 17.3213L10.9141 12.3092C11.5409 13.2906 12.3823 14.7819 13.2107 16.7873C14.866 20.7947 16.475 26.8683 16.2068 35.0514L16.1553 36.6234L17.647 36.1261C21.8017 34.7406 24.8063 35.75 26.7876 37.0613C27.7944 37.7277 28.5495 38.4823 29.052 39.0707C29.3022 39.364 29.4872 39.6127 29.6071 39.7839L29.7694 40.0282C30.0783 40.5465 30.7482 40.7172 31.2673 40.4094C31.2673 40.4094 33.0775 36.7613 34.9595 35.0514C36.6979 33.4718 40.1646 32.0315 40.1646 32.0315C40.4423 31.4946 40.2326 30.8344 39.696 30.5562L39.4275 30.4006C39.2407 30.2866 38.9705 30.1116 38.652 29.875C38.0119 29.3995 37.1944 28.6893 36.4678 27.746C35.042 25.8947 33.9404 23.1302 35.2985 19.3018L35.8447 17.7616L34.213 17.8419C26.098 18.2411 20.4286 16.1134 16.8061 13.926Z" fill="white"/>
<path d="M28.2525 27.6957C28.2525 28.6029 27.5175 29.3384 26.6106 29.3384C25.7039 29.3384 24.9688 28.6029 24.9688 27.6957C24.9688 26.7886 25.7039 26.0532 26.6106 26.0532C27.5175 26.0532 28.2525 26.7886 28.2525 27.6957Z" fill="white"/>
<path fill-rule="evenodd" clip-rule="evenodd" d="M11.3761 9.66431L9.66406 11.0187L9.99293 11.4277C10.1716 11.6605 10.4311 12.0158 10.7435 12.4942C11.3751 13.4613 12.2227 14.9309 13.0572 16.9071C14.7249 20.8561 16.3459 26.8412 16.0757 34.9048L16.0238 36.454L17.5266 35.964C21.7123 34.5987 24.7393 35.5936 26.7353 36.8855C27.7498 37.5422 28.5103 38.286 29.0165 38.8659C29.2689 39.1546 29.4552 39.3997 29.5759 39.5683L29.7393 39.8091C30.0503 40.3199 30.7254 40.4882 31.2485 40.185C31.7724 39.8812 31.9455 39.2191 31.635 38.7065L31.5624 38.5925C31.5205 38.5285 31.4606 38.4395 31.3823 38.3304C31.2262 38.1124 30.9969 37.8116 30.6934 37.464C30.0883 36.7707 29.1775 35.879 27.9522 35.0858C25.7242 33.6436 22.4959 32.5589 18.3097 33.507C18.3555 26.6748 17.094 21.3218 15.6337 17.4333L23.3831 25.4988C22.9472 26.1105 22.6915 26.8543 22.6915 27.6565C22.6915 29.7425 24.4195 31.4333 26.5511 31.4333C28.6826 31.4333 30.4106 29.7425 30.4106 27.6565C30.4106 25.5708 28.6826 23.8798 26.5511 23.8798C25.9591 23.8798 25.3983 24.0102 24.897 24.2433L18.7254 17.5473C22.2668 19.0666 26.9122 20.2239 32.7858 20.1489C31.8759 24.0104 33.1377 26.9876 34.7407 29.0234C35.6286 30.1508 36.6141 30.9852 37.3735 31.5368C37.7547 31.8137 38.0834 32.0226 38.3205 32.1643L38.7259 32.3917C39.267 32.6656 39.9323 32.4583 40.2122 31.929C40.4917 31.4 40.2805 30.7495 39.7401 30.4753L39.4694 30.322C39.2813 30.2097 39.009 30.0371 38.688 29.804C38.0434 29.3355 37.2197 28.6355 36.4877 27.7062C35.0512 25.8817 33.9415 23.1576 35.3095 19.3849L35.86 17.8672L34.2162 17.9463C26.0405 18.3397 20.329 16.243 16.6794 14.0875C14.9988 13.0948 13.7481 12.0851 12.892 11.2903L11.3761 9.66431ZM26.5511 29.2753C27.4646 29.2753 28.2052 28.5505 28.2052 27.6565C28.2052 26.7627 27.4646 26.038 26.5511 26.038C25.6376 26.038 24.897 26.7627 24.897 27.6565C24.897 28.5505 25.6376 29.2753 26.5511 29.2753Z" fill="black"/>
</g>
<defs>
<clipPath id="clip0_1_713">
<rect width="50" height="50" fill="white"/>
</clipPath>
</defs>
</svg>

<svg xmlns="http://www.w3.org/2000/svg" width="64" height="64" fill="none" viewBox="0 0 50 50"><g clip-path="url(#a)"><path fill="#FFDB59" d="M50 25C50 11.193 38.807 0 25 0S0 11.193 0 25s11.193 25 25 25 25-11.193 25-25Z"/><path fill="#fff" d="M16.806 13.926a21.943 21.943 0 0 1-3.76-2.838l5.79 6.349 6.127 6.795a3.832 3.832 0 0 1 5.473 3.464 3.832 3.832 0 1 1-6.976-2.19l-7.692-8.185-4.854-5.012c.627.982 1.468 2.473 2.297 4.478 1.655 4.008 3.264 10.081 2.996 18.264l-.052 1.572 1.492-.497c4.155-1.385 7.16-.376 9.14.935a10.982 10.982 0 0 1 2.265 2.01c.25.293.435.542.555.713l.162.244c.31.519.98.69 1.498.381 0 0 1.81-3.648 3.692-5.358 1.739-1.58 5.206-3.02 5.206-3.02a1.095 1.095 0 0 0-.469-1.475l-.268-.155a11.242 11.242 0 0 1-2.96-2.655c-1.426-1.851-2.528-4.616-1.17-8.444l.547-1.54-1.632.08c-8.115.4-13.784-1.729-17.407-3.916Z"/><path fill="#fff" d="M28.253 27.696a1.642 1.642 0 1 1-3.285 0 1.642 1.642 0 0 1 3.285 0Z"/><path fill="#000" fill-rule="evenodd" d="M11.376 9.664 9.664 11.02l.329.409c.179.232.438.588.75 1.066.632.967 1.48 2.437 2.314 4.413 1.668 3.95 3.289 9.934 3.019 17.998l-.052 1.549 1.503-.49c4.185-1.365 7.212-.37 9.208.922 1.015.656 1.775 1.4 2.282 1.98.252.289.438.534.559.702l.163.241c.311.51.986.68 1.51.376.523-.304.697-.966.386-1.479l-.073-.114a7.421 7.421 0 0 0-.18-.262 11.57 11.57 0 0 0-.689-.866 13.166 13.166 0 0 0-2.74-2.378c-2.229-1.442-5.457-2.527-9.643-1.579.046-6.832-1.216-12.185-2.676-16.074l7.75 8.066a3.704 3.704 0 0 0-.692 2.158c0 2.085 1.727 3.776 3.86 3.776 2.13 0 3.859-1.69 3.859-3.776s-1.728-3.777-3.86-3.777c-.592 0-1.153.13-1.654.363l-6.172-6.696c3.542 1.52 8.187 2.677 14.06 2.602-.91 3.861.353 6.839 1.956 8.874a13.4 13.4 0 0 0 3.58 3.141l.405.228a1.115 1.115 0 0 0 1.486-.463c.28-.529.069-1.18-.472-1.454l-.27-.153a11.229 11.229 0 0 1-2.982-2.616c-1.437-1.824-2.547-4.548-1.178-8.321l.55-1.518-1.644.08c-8.175.393-13.887-1.704-17.537-3.86a22.068 22.068 0 0 1-3.787-2.797l-1.516-1.626Zm15.175 19.611c.914 0 1.654-.724 1.654-1.618 0-.894-.74-1.619-1.654-1.619-.913 0-1.654.725-1.654 1.619 0 .893.74 1.618 1.654 1.618Z" clip-rule="evenodd"/></g><defs><clipPath id="a"><path fill="#fff" d="M0 0h50v50H0z"/></clipPath></defs></svg>
